X: 1
T:Kentish Cricketers
M:2/4
L:1/8
R:Reel
K:D
B|AF dF|AF DB|AF de|c2EF/G/|AF dF|AF Df|e>d ef|d3::
c|df/g/ af|bg af|f>e df|e3f|df/g/ af|bg af|e>d ef|d3:|
